symbols/web/bus_alert/materialsymbolssharp/bus_alert_wght300fill1_24px.svg

<svg xmlns="http://www.w3.org/2000/svg" height="24" width="24"><path d="M6.5 16.8q.55 0 .925-.375T7.8 15.5q0-.55-.375-.925T6.5 14.2q-.55 0-.925.375T5.2 15.5q0 .55.375.925t.925.375Zm7 0q.55 0 .925-.375t.375-.925q0-.55-.375-.925T13.5 14.2q-.55 0-.925.375t-.375.925q0 .55.375.925t.925.375Zm4.3-6.1q-1.875 0-3.187-1.313Q13.3 8.075 13.3 6.2q0-1.875 1.313-3.188Q15.925 1.7 17.8 1.7q1.875 0 3.188 1.312Q22.3 4.325 22.3 6.2q0 1.875-1.312 3.187Q19.675 10.7 17.8 10.7ZM17.375 7h.875V3.5h-.875Zm.425 1.925q.2 0 .35-.138.15-.137.15-.337t-.15-.35q-.15-.15-.35-.15-.2 0-.338.15-.137.15-.137.35 0 .2.137.337.138.138.338.138ZM3.775 21.5v-2.725q-.475-.35-.875-1T2.5 16.3V7q0-.7.325-1.387.325-.688 1.3-1.201Q5.1 3.9 6.912 3.65q1.813-.25 4.763-.125-.4.975-.512 2.087-.113 1.113.162 2.163H4V11.5h9.95q.675.625 1.625 1t1.925.375V16.3q0 .825-.4 1.475-.4.65-.875 1V21.5h-2.1v-2h-8.25v2Z"/></svg>

<svg xmlns="http://www.w3.org/2000/svg" height="24" width="24"><path d="M6.5 16.8Q7.05 16.8 7.425 16.425Q7.8 16.05 7.8 15.5Q7.8 14.95 7.425 14.575Q7.05 14.2 6.5 14.2Q5.95 14.2 5.575 14.575Q5.2 14.95 5.2 15.5Q5.2 16.05 5.575 16.425Q5.95 16.8 6.5 16.8ZM13.5 16.8Q14.05 16.8 14.425 16.425Q14.8 16.05 14.8 15.5Q14.8 14.95 14.425 14.575Q14.05 14.2 13.5 14.2Q12.95 14.2 12.575 14.575Q12.2 14.95 12.2 15.5Q12.2 16.05 12.575 16.425Q12.95 16.8 13.5 16.8ZM17.8 10.7Q15.925 10.7 14.613 9.387Q13.3 8.075 13.3 6.2Q13.3 4.325 14.613 3.012Q15.925 1.7 17.8 1.7Q19.675 1.7 20.988 3.012Q22.3 4.325 22.3 6.2Q22.3 8.075 20.988 9.387Q19.675 10.7 17.8 10.7ZM17.375 7H18.25V3.5H17.375ZM17.8 8.925Q18 8.925 18.15 8.787Q18.3 8.65 18.3 8.45Q18.3 8.25 18.15 8.1Q18 7.95 17.8 7.95Q17.6 7.95 17.462 8.1Q17.325 8.25 17.325 8.45Q17.325 8.65 17.462 8.787Q17.6 8.925 17.8 8.925ZM3.775 21.5V18.775Q3.3 18.425 2.9 17.775Q2.5 17.125 2.5 16.3V7Q2.5 6.3 2.825 5.613Q3.15 4.925 4.125 4.412Q5.1 3.9 6.912 3.65Q8.725 3.4 11.675 3.525Q11.275 4.5 11.163 5.612Q11.05 6.725 11.325 7.775H4V11.5H13.95Q14.625 12.125 15.575 12.5Q16.525 12.875 17.5 12.875V16.3Q17.5 17.125 17.1 17.775Q16.7 18.425 16.225 18.775V21.5H14.125V19.5H5.875V21.5Z"/></svg>
